src/assets/skills/working-smarter.svg

<svg fill="none" height="737" viewBox="0 0 737 737" width="737" xmlns="http://www.w3.org/2000/svg" xmlns:xlink="http://www.w3.org/1999/xlink"><linearGradient id="a" gradientUnits="userSpaceOnUse" x1="368.5" x2="368.5" y1="0" y2="737"><stop offset=".00225706" stop-color="#2b5355"/><stop offset="1"/></linearGradient><linearGradient id="b" gradientUnits="userSpaceOnUse" x1="313.304" x2="478.583" y1="336.433" y2="878.358"><stop offset="0" stop-color="#fff"/><stop offset="1" stop-color="#eee"/></linearGradient><path d="m0 368.5c0-203.517 164.983-368.5 368.5-368.5 203.517 0 368.5 164.983 368.5 368.5 0 203.517-164.983 368.5-368.5 368.5-203.517 0-368.5-164.983-368.5-368.5z" fill="url(#a)"/><path d="m354.769 119.836-23.286 23.413-.554.557c-2.817 2.87-3.043 7.373-.529 10.476l17.358 21.446c.291.356.538.724.758 1.104 1.461 2.684 1.294 6.047-.632 8.485-11.165 14.536-19.319 31.102-23.965 48.817-.203.713-.496 1.396-.871 2.035-1.421 2.347-4.058 3.833-6.877 3.805l-23.028-.447c-3.033-.035-5.783 1.698-7.13 4.268-.385.794-.701 1.686-.826 2.638l-4.236 33.443c-.529 4.104 2.222 8.003 6.323 8.864l29.964 6.413c1.445.31 2.773 1.026 3.826 2.063s1.788 2.353 2.12 3.792c1.046 4.231 2.236 8.411 3.674 12.588 2.642 7.687 5.966 15.123 9.931 22.22l.016.038c1.626 2.912 1.311 6.455-.823 9.003l-19.958 23.836-.991 1.209c-2.59 3.037-2.411 7.647.473 10.498l23.936 23.816c2.936 2.879 7.581 3.147 10.782.553l23.883-19.278c2.653-2.149 6.386-2.359 9.21-.519 12.083 7.59 25.271 13.314 39.107 16.87 1.708.454 3.215 1.468 4.278 2.879 1.064 1.41 1.623 3.137 1.588 4.902l-.442 27.27c-.034 1.985.668 3.912 1.972 5.411 1.303 1.499 3.116 2.463 5.088 2.706l33.616 4.291c3.976.496 7.663-2.137 8.48-6.011l7.57-35.175c.627-2.987 2.915-5.344 5.88-6.105 3.683-.93 7.325-2.016 10.915-3.255 6.714-2.299 13.242-5.106 19.529-8.396 2.793-1.493 6.209-1.181 8.619.887l28.666 24.011c1.517 1.266 3.453 1.919 5.427 1.83 1.974-.088 3.844-.912 5.24-2.309l23.913-24.005c2.513-2.552 2.965-6.517 1.183-9.538-.187-.305-.39-.648-.656-.931l-21.412-26.495c-2.001-2.454-2.383-5.834-.905-8.62.121-.245.245-.497.412-.722.462-.695.904-1.343 1.307-2.1 5.269-8.288 9.633-17.117 13.016-26.336 1.079-3.1 4.109-5.13 7.442-5.036l28.834.476c4.086.084 7.578-2.972 8.083-7.033l.954-7.433 3.261-25.956c.539-4.069-2.168-7.85-6.194-8.744l-29.515-6.318c-3.159-.648-5.5-3.237-5.975-6.423-1.258-8.537-3.307-16.939-6.123-25.098-2.105-6.109-4.641-12.061-7.588-17.813l4.195-4.995 17.166-20.523c2.152-2.519 2.405-6.118.756-8.854-.337-.591-.76-1.128-1.256-1.594l-24.073-24.017c-2.875-2.816-7.401-2.998-10.524-.52l-16.297 13.203c-2.752 2.226-6.772 2.322-9.607.2-11.716-8.793-24.754-15.673-38.626-20.384-3.279-1.104-5.432-4.126-5.309-7.475l.576-34.4676c.023-1.8647-.641-3.673-1.866-5.0809s-2.924-2.317-4.776-2.5545l-33.989-4.2847c-4.029-.5156-7.75 2.1252-8.552 6.0366l-7.866 36.5991c-.648 3.156-3.176 5.555-6.378 6.115-6.83 1.189-13.649 2.992-20.459 5.329-3.63 1.245-7.206 2.639-10.721 4.18-1.342.582-2.819.783-4.268.58s-2.815-.801-3.945-1.73l-27.493-23.004c-1.527-1.296-3.485-1.971-5.487-1.893-2.001.079-3.9.906-5.319 2.317zm29.566 165.057c-5.942-26.543 1.717-50.856 16.77-65.856 52.853-52.495 136.154-12.772 129.502 60.362-1.938 18.7-11.415 36.634-30.823 50.056-45.263 30.951-104.055 6.165-115.449-44.562z" fill="#d9d9d9"/><path d="m282.636 509.665-4.73 19.142-.11.456c-.274 1.122-.123 2.306.424 3.326s1.452 1.804 2.542 2.203l15.548 5.667c.258.094.5.204.728.335 1.578.928 2.535 2.701 2.295 4.543-1.251 10.861-.307 21.867 2.775 32.369.122.438.178.88.181 1.311-.009.823-.231 1.629-.644 2.34-.413.712-1.004 1.305-1.715 1.722l-11.97 6.836c-.756.445-1.375 1.088-1.789 1.86-.414.771-.607 1.642-.558 2.516.045.527.161 1.079.391 1.608l8.163 18.439c.49 1.102 1.378 1.981 2.487 2.464 1.109.482 2.358.533 3.5.141l17.382-5.904c.838-.285 1.74-.325 2.602-.117.861.208 1.646.656 2.262 1.292 5.264 5.338 11.236 9.935 17.748 13.663l.017.015c.845.475 1.524 1.197 1.946 2.067s.566 1.848.414 2.801l-2.881 18.333-.134.924c-.395 2.352 1.125 4.657 3.489 5.235l19.674 4.851c2.398.572 4.865-.714 5.713-3.022l6.316-17.205c.336-.931.959-1.731 1.781-2.286.821-.555 1.799-.837 2.792-.804 8.564.192 17.103-.939 25.313-3.352 1.018-.291 2.105-.234 3.087.163.983.397 1.804 1.111 2.332 2.027l8.194 14.11c.596 1.028 1.553 1.801 2.686 2.169 1.133.369 2.362.307 3.45-.173l18.602-8.112c1.055-.463 1.897-1.303 2.36-2.355s.512-2.239.139-3.327l-6.981-20.347c-.292-.848-.34-1.758-.14-2.63s.64-1.671 1.272-2.306c4.6-4.616 8.642-9.753 12.043-15.306.973-1.626 2.828-2.511 4.703-2.191l22.153 3.511c1.171.183 2.368-.076 3.355-.728.987-.651 1.693-1.647 1.98-2.792l4.869-19.633c.24-1.009.14-2.069-.283-3.018s-1.147-1.733-2.06-2.234c-.192-.101-.401-.214-.622-.279l-19.197-7.01c-1.786-.643-3.027-2.261-3.126-4.14-.014-.165-.029-.328-.01-.496.023-.5.049-.966.021-1.477.146-5.862-.341-11.724-1.451-17.485-.402-1.922.525-3.89 2.269-4.868l14.963-8.597c2.123-1.21 2.974-3.851 1.979-6.086l-1.809-4.105-6.35-14.302c-.98-2.252-3.541-3.358-5.885-2.58l-17.123 5.817c-1.826.635-3.826.029-5.055-1.459-5.755-6.986-12.614-12.994-20.307-17.784l.612-3.846 2.477-15.786c.156-.939.014-1.904-.408-2.759-.421-.856-1.1-1.559-1.942-2.012-.357-.199-.74-.345-1.138-.434l-19.795-4.921c-2.346-.563-4.731.734-5.569 2.958l-4.294 11.766c-.726 1.982-2.761 3.268-4.878 3.051-8.739-.913-17.566-.44-26.15 1.401-2.027.438-4.069-.449-5.039-2.203l-10.358-17.84c-.566-.963-1.467-1.686-2.532-2.032s-2.219-.291-3.244.156l-18.792 8.23c-2.228.968-3.325 3.466-2.528 5.717l7.27 21.167c.641 1.819.085 3.82-1.386 5.089-3.142 2.705-6.091 5.721-8.866 9.008-1.481 1.751-2.889 3.563-4.218 5.431-.51.71-1.207 1.266-2.014 1.607-.808.341-1.694.453-2.563.324l-21.238-3.358c-1.185-.19-2.397.068-3.399.722-1.003.655-1.722 1.66-2.018 2.818zm66.218 75.519c-3.778-3.952-7.029-8.744-9.574-14.41-.556-1.195-1.028-2.595-1.457-4.085-1.765-6.444-2.128-14.762-.707-20.4 10.933-43.111 66.019-48.306 85.205-8.788.306.653.615 1.306.907 1.978 2.763 6.243 3.659 16.836 2.058 23.449-.805 3.323-1.92 6.564-3.329 9.679-13.69 29.745-51.567 35.077-73.103 12.577z" fill="url(#b)"/><path clip-rule="evenodd" d="m149.453 259.588-20.524 9.559-.489.228c-2.491 1.181-3.704 4.021-2.822 6.608l6.092 17.881c.102.296.175.59.225.887.305 2.07-.599 4.193-2.416 5.305-10.618 6.696-19.789 15.443-26.975 25.727-.3.41-.65.78-1.042 1.103-.742.584-1.6215.967-2.5547 1.111-.9331.144-1.8878.045-2.7713-.287l-14.7094-5.719c-.9409-.352-1.9606-.439-2.9477-.251-.9871.187-1.9037.641-2.6498 1.313-.4634.435-.8539.942-1.1567 1.5l-10.6418 20.499c-1.3141 2.512-.4662 5.668 1.9688 7.188l17.7598 11.189c.8563.541 1.5406 1.314 1.9725 2.229s.5936 1.934.4661 2.937c-.3386 2.976-.5443 5.965-.6165 8.959-.1194 5.565.2581 11.129 1.1281 16.626l.0012.027c.18 1.092.0217 2.213-.4537 3.212-.4755 1-1.2454 1.831-2.2068 2.382l-18.4847 10.614-.923.542c-2.3862 1.342-3.3616 4.347-2.1811 6.859l9.7617 20.956c1.2068 2.542 4.1308 3.81 6.8044 2.898l19.93-6.759c2.2166-.756 4.6676-.011 6.0486 1.838 5.978 7.728 13.106 14.519 21.166 20.067.992.695 1.721 1.702 2.071 2.86.35 1.157.301 2.399-.139 3.525l-6.741 17.425c-.492 1.268-.496 2.672-.013 3.943.484 1.271 1.422 2.319 2.633 2.941l20.612 10.685c2.441 1.256 5.437.433 6.88-1.863l13.198-20.825c.547-.868 1.327-1.565 2.251-2.014.924-.448 1.955-.63 2.977-.524 2.568.27 5.168.431 7.794.482 4.864.106 9.728-.159 14.552-.792 2.15-.3 4.275.706 5.335 2.603l12.757 22.195c.677 1.172 1.768 2.049 3.059 2.457 1.292.409 2.69.32 3.919-.249l21.067-9.789c1.075-.512 1.952-1.361 2.497-2.418.546-1.057.729-2.263.523-3.434l-.008-.037c-.045-.231-.095-.484-.194-.717l-7.503-22.081c-.706-2.049-.151-4.312 1.46-5.754l.01-.01c.133-.125.268-.253.425-.356.049-.036.098-.072.147-.108.408-.298.8-.584 1.191-.934 5.352-4.085 10.25-8.731 14.609-13.86 1.429-1.737 3.859-2.327 5.981-1.481l18.438 7.107c2.609 1.018 5.579-.124 6.866-2.614l2.374-4.554 8.243-15.915c1.31-2.489.465-5.557-1.914-7.081l-17.494-11.022c-1.879-1.162-2.773-3.378-2.323-5.537 1.212-5.785 1.882-11.669 2.002-17.577.092-4.424-.13-8.848-.665-13.241l3.882-2.221 15.903-9.144c.953-.535 1.715-1.354 2.178-2.342.463-.989.604-2.097.404-3.17-.076-.46-.221-.905-.43-1.321l-9.801-21.116c-1.183-2.488-4.051-3.673-6.648-2.815l-13.61 4.643c-2.299.781-4.907-.105-6.229-2.137-5.455-8.416-12.215-15.914-20.025-22.214-1.848-1.482-2.517-3.933-1.646-6.057l8.531-22.018c.457-1.194.457-2.512.003-3.706-.455-1.194-1.333-2.179-2.468-2.769l-20.853-10.771c-2.47-1.282-5.49-.462-6.932 1.863l-13.726 21.67c-1.163 1.876-3.358 2.822-5.55 2.427-4.676-.847-9.491-1.297-14.424-1.399-2.631-.056-5.262-.004-7.888.157-1.001.058-1.999-.161-2.883-.633-.885-.472-1.622-1.179-2.13-2.043l-12.241-21.27c-.676-1.193-1.776-2.09-3.082-2.511-1.306-.422-2.724-.339-3.971.233zm6.325 74.695c-13.237 6.092-23.92 19.913-26.383 38.377-4.678 35.294 27.278 65.092 63.727 55.872 15.664-4.049 26.008-13.343 31.682-24.906 21.596-45.441-22.593-90.621-69.026-69.343z" fill="#2ccbd3" fill-rule="evenodd"/></svg>

<svg width="737" height="737" viewBox="0 0 737 737" fill="none" xmlns="http://www.w3.org/2000/svg">
<path d="M0 368.5C0 164.983 164.983 0 368.5 0V0C572.017 0 737 164.983 737 368.5V368.5C737 572.017 572.017 737 368.5 737V737C164.983 737 0 572.017 0 368.5V368.5Z" fill="url(#paint0_linear_108_389)"/>
<path d="M354.769 119.836L331.483 143.249L330.929 143.806C328.112 146.676 327.886 151.179 330.4 154.282L347.758 175.728C348.049 176.084 348.296 176.452 348.516 176.832C349.977 179.516 349.81 182.879 347.884 185.317C336.719 199.853 328.565 216.419 323.919 234.134C323.716 234.847 323.423 235.53 323.048 236.169C321.627 238.516 318.99 240.002 316.171 239.974L293.143 239.527C290.11 239.492 287.36 241.225 286.013 243.795C285.628 244.589 285.312 245.481 285.187 246.433L280.951 279.876C280.422 283.98 283.173 287.879 287.274 288.74L317.238 295.153C318.683 295.463 320.011 296.179 321.064 297.216C322.117 298.253 322.852 299.569 323.184 301.008C324.23 305.239 325.42 309.419 326.858 313.596C329.5 321.283 332.824 328.719 336.789 335.816L336.805 335.854C338.431 338.766 338.116 342.309 335.982 344.857L316.024 368.693L315.033 369.902C312.443 372.939 312.622 377.549 315.506 380.4L339.442 404.216C342.378 407.095 347.023 407.363 350.224 404.769L374.107 385.491C376.76 383.342 380.493 383.132 383.317 384.972C395.4 392.562 408.588 398.286 422.424 401.842C424.132 402.296 425.639 403.31 426.702 404.721C427.766 406.131 428.325 407.858 428.29 409.623L427.848 436.893C427.814 438.878 428.516 440.805 429.82 442.304C431.123 443.803 432.936 444.767 434.908 445.01L468.524 449.301C472.5 449.797 476.187 447.164 477.004 443.29L484.574 408.115C485.201 405.128 487.489 402.771 490.454 402.01C494.137 401.08 497.779 399.994 501.369 398.755C508.083 396.456 514.611 393.649 520.898 390.359C523.691 388.866 527.107 389.178 529.517 391.246L558.183 415.257C559.7 416.523 561.636 417.176 563.61 417.087C565.584 416.999 567.454 416.175 568.85 414.778L592.763 390.773C595.276 388.221 595.728 384.256 593.946 381.235C593.759 380.93 593.556 380.587 593.29 380.304L571.878 353.809C569.877 351.355 569.495 347.975 570.973 345.189C571.094 344.944 571.218 344.692 571.385 344.467C571.847 343.772 572.289 343.124 572.692 342.367C577.961 334.079 582.325 325.25 585.708 316.031C586.787 312.931 589.817 310.901 593.15 310.995L621.984 311.471C626.07 311.555 629.562 308.499 630.067 304.438L631.021 297.005L634.282 271.049C634.821 266.98 632.114 263.199 628.088 262.305L598.573 255.987C595.414 255.339 593.073 252.75 592.598 249.564C591.34 241.027 589.291 232.625 586.475 224.466C584.37 218.357 581.834 212.405 578.887 206.653L583.082 201.658L600.248 181.135C602.4 178.616 602.653 175.017 601.004 172.281C600.667 171.69 600.244 171.153 599.748 170.687L575.675 146.67C572.8 143.854 568.274 143.672 565.151 146.15L548.854 159.353C546.102 161.579 542.082 161.675 539.247 159.553C527.531 150.76 514.493 143.88 500.621 139.169C497.342 138.065 495.189 135.043 495.312 131.694L495.888 97.2264C495.911 95.3617 495.247 93.5534 494.022 92.1455C492.797 90.7376 491.098 89.8285 489.246 89.591L455.257 85.3063C451.228 84.7907 447.507 87.4315 446.705 91.3429L438.839 127.942C438.191 131.098 435.663 133.497 432.461 134.057C425.631 135.246 418.812 137.049 412.002 139.386C408.372 140.631 404.796 142.025 401.281 143.566C399.939 144.148 398.462 144.349 397.013 144.146C395.564 143.943 394.198 143.345 393.068 142.416L365.575 119.412C364.048 118.116 362.09 117.441 360.088 117.519C358.087 117.598 356.188 118.425 354.769 119.836ZM384.335 284.893C378.393 258.35 386.052 234.037 401.105 219.037C453.958 166.542 537.259 206.265 530.607 279.399C528.669 298.099 519.192 316.033 499.784 329.455C454.521 360.406 395.729 335.62 384.335 284.893Z" fill="#D9D9D9"/>
<path d="M282.636 509.665L277.906 528.807L277.796 529.263C277.522 530.385 277.673 531.569 278.22 532.589C278.767 533.609 279.672 534.393 280.762 534.792L296.31 540.459C296.568 540.553 296.81 540.663 297.038 540.794C298.616 541.722 299.573 543.495 299.333 545.337C298.082 556.198 299.026 567.204 302.108 577.706C302.23 578.144 302.286 578.586 302.289 579.017C302.28 579.84 302.058 580.646 301.645 581.357C301.232 582.069 300.641 582.662 299.93 583.079L287.96 589.915C287.204 590.36 286.585 591.003 286.171 591.775C285.757 592.546 285.564 593.417 285.613 594.291C285.658 594.818 285.774 595.37 286.004 595.899L294.167 614.338C294.657 615.44 295.545 616.319 296.654 616.802C297.763 617.284 299.012 617.335 300.154 616.943L317.536 611.039C318.374 610.754 319.276 610.714 320.138 610.922C320.999 611.13 321.784 611.578 322.4 612.214C327.664 617.552 333.636 622.149 340.148 625.877L340.165 625.892C341.01 626.367 341.689 627.089 342.111 627.959C342.533 628.829 342.677 629.807 342.525 630.76L339.644 649.093L339.51 650.017C339.115 652.369 340.635 654.674 342.999 655.252L362.673 660.103C365.071 660.675 367.538 659.389 368.386 657.081L374.702 639.876C375.038 638.945 375.661 638.145 376.483 637.59C377.304 637.035 378.282 636.753 379.275 636.786C387.839 636.978 396.378 635.847 404.588 633.434C405.606 633.143 406.693 633.2 407.675 633.597C408.658 633.994 409.479 634.708 410.007 635.624L418.201 649.734C418.797 650.762 419.754 651.535 420.887 651.903C422.02 652.272 423.249 652.21 424.337 651.73L442.939 643.618C443.994 643.155 444.836 642.315 445.299 641.263C445.762 640.211 445.811 639.024 445.438 637.936L438.457 617.589C438.165 616.741 438.117 615.831 438.317 614.959C438.517 614.087 438.957 613.288 439.589 612.653C444.189 608.037 448.231 602.9 451.632 597.347C452.605 595.721 454.46 594.836 456.335 595.156L478.488 598.667C479.659 598.85 480.856 598.591 481.843 597.939C482.83 597.288 483.536 596.292 483.823 595.147L488.692 575.514C488.932 574.505 488.832 573.445 488.409 572.496C487.986 571.547 487.262 570.763 486.349 570.262C486.157 570.161 485.948 570.048 485.727 569.983L466.53 562.973C464.744 562.33 463.503 560.712 463.404 558.833C463.39 558.668 463.375 558.505 463.394 558.337C463.417 557.837 463.443 557.371 463.415 556.86C463.561 550.998 463.074 545.136 461.964 539.375C461.562 537.453 462.489 535.485 464.233 534.507L479.196 525.91C481.319 524.7 482.17 522.059 481.175 519.824L479.366 515.719L473.016 501.417C472.036 499.165 469.475 498.059 467.131 498.837L450.008 504.654C448.182 505.289 446.182 504.683 444.953 503.195C439.198 496.209 432.339 490.201 424.646 485.411L425.258 481.565L427.735 465.779C427.891 464.84 427.749 463.875 427.327 463.02C426.906 462.164 426.227 461.461 425.385 461.008C425.028 460.809 424.645 460.663 424.247 460.574L404.452 455.653C402.106 455.09 399.721 456.387 398.883 458.611L394.589 470.377C393.863 472.359 391.828 473.645 389.711 473.428C380.972 472.515 372.145 472.988 363.561 474.829C361.534 475.267 359.492 474.38 358.522 472.626L348.164 454.786C347.598 453.823 346.697 453.1 345.632 452.754C344.567 452.408 343.413 452.463 342.388 452.91L323.596 461.14C321.368 462.108 320.271 464.606 321.068 466.857L328.338 488.024C328.979 489.843 328.423 491.844 326.952 493.113C323.81 495.818 320.861 498.834 318.086 502.121C316.605 503.872 315.197 505.684 313.868 507.552C313.358 508.262 312.661 508.818 311.854 509.159C311.046 509.5 310.16 509.612 309.291 509.483L288.053 506.125C286.868 505.935 285.656 506.193 284.654 506.847C283.651 507.502 282.932 508.507 282.636 509.665V509.665ZM348.854 585.184C345.076 581.232 341.825 576.44 339.28 570.774C338.724 569.579 338.252 568.179 337.823 566.689C336.058 560.245 335.695 551.927 337.116 546.289C348.049 503.178 403.135 497.983 422.321 537.501C422.627 538.154 422.936 538.807 423.228 539.479C425.991 545.722 426.887 556.315 425.286 562.928C424.481 566.251 423.366 569.492 421.957 572.607C408.267 602.352 370.39 607.684 348.854 585.184V585.184Z" fill="url(#paint1_linear_108_389)"/>
<path fill-rule="evenodd" clip-rule="evenodd" d="M149.453 259.588L128.929 269.147L128.44 269.375C125.949 270.556 124.736 273.396 125.618 275.983L131.71 293.864C131.812 294.16 131.885 294.454 131.935 294.751C132.24 296.821 131.336 298.944 129.519 300.056C118.901 306.752 109.73 315.499 102.544 325.783C102.244 326.193 101.894 326.563 101.502 326.886C100.76 327.47 99.8805 327.853 98.9473 327.997C98.0142 328.141 97.0595 328.042 96.176 327.71L81.4666 321.991C80.5257 321.639 79.506 321.552 78.5189 321.74C77.5318 321.927 76.6152 322.381 75.8691 323.053C75.4057 323.488 75.0152 323.995 74.7124 324.553L64.0706 345.052C62.7565 347.564 63.6044 350.72 66.0394 352.24L83.7992 363.429C84.6555 363.97 85.3398 364.743 85.7717 365.658C86.2036 366.573 86.3653 367.592 86.2378 368.595C85.8992 371.571 85.6935 374.56 85.6213 377.554C85.5019 383.119 85.8794 388.683 86.7494 394.18L86.7506 394.207C86.9306 395.299 86.7723 396.42 86.2969 397.419C85.8214 398.419 85.0515 399.25 84.0901 399.801L65.6054 410.415L64.6824 410.957C62.2962 412.299 61.3208 415.304 62.5013 417.816L72.263 438.772C73.4698 441.314 76.3938 442.582 79.0674 441.67L98.9974 434.911C101.214 434.155 103.665 434.9 105.046 436.749C111.024 444.477 118.152 451.268 126.212 456.816C127.204 457.511 127.933 458.518 128.283 459.676C128.633 460.833 128.584 462.075 128.144 463.201L121.403 480.626C120.911 481.894 120.907 483.298 121.39 484.569C121.874 485.84 122.812 486.888 124.023 487.51L144.635 498.195C147.076 499.451 150.072 498.628 151.515 496.332L164.713 475.507C165.26 474.639 166.04 473.942 166.964 473.493C167.888 473.045 168.919 472.863 169.941 472.969C172.509 473.239 175.109 473.4 177.735 473.451C182.599 473.557 187.463 473.292 192.287 472.659C194.437 472.359 196.562 473.365 197.622 475.262L210.379 497.457C211.056 498.629 212.147 499.506 213.438 499.914C214.73 500.323 216.128 500.234 217.357 499.665L238.424 489.876C239.499 489.364 240.376 488.515 240.921 487.458C241.467 486.401 241.65 485.195 241.444 484.024L241.436 483.987C241.391 483.756 241.341 483.503 241.242 483.27L233.739 461.189C233.033 459.14 233.588 456.877 235.199 455.435L235.209 455.425C235.342 455.3 235.477 455.172 235.634 455.069C235.683 455.033 235.732 454.997 235.781 454.961C236.189 454.663 236.581 454.377 236.972 454.027C242.324 449.942 247.222 445.296 251.581 440.167C253.01 438.43 255.44 437.84 257.562 438.686L276 445.793C278.609 446.811 281.579 445.669 282.866 443.179L285.24 438.625L293.483 422.71C294.793 420.221 293.948 417.153 291.569 415.629L274.075 404.607C272.196 403.445 271.302 401.229 271.752 399.07C272.964 393.285 273.634 387.401 273.754 381.493C273.846 377.069 273.624 372.645 273.089 368.252L276.971 366.031L292.874 356.887C293.827 356.352 294.589 355.533 295.052 354.545C295.515 353.556 295.656 352.448 295.456 351.375C295.38 350.915 295.235 350.47 295.026 350.054L285.225 328.938C284.042 326.45 281.174 325.265 278.577 326.123L264.967 330.766C262.668 331.547 260.06 330.661 258.738 328.629C253.283 320.213 246.523 312.715 238.713 306.415C236.865 304.933 236.196 302.482 237.067 300.358L245.598 278.34C246.055 277.146 246.055 275.828 245.601 274.634C245.146 273.44 244.268 272.455 243.133 271.865L222.28 261.094C219.81 259.812 216.79 260.632 215.348 262.957L201.622 284.627C200.459 286.503 198.264 287.449 196.072 287.054C191.396 286.207 186.581 285.757 181.648 285.655C179.017 285.599 176.386 285.651 173.76 285.812C172.759 285.87 171.761 285.651 170.877 285.179C169.992 284.707 169.255 284 168.747 283.136L156.506 261.866C155.83 260.673 154.73 259.776 153.424 259.355C152.118 258.933 150.7 259.016 149.453 259.588ZM155.778 334.283C142.541 340.375 131.858 354.196 129.395 372.66C124.717 407.954 156.673 437.752 193.122 428.532C208.786 424.483 219.13 415.189 224.804 403.626C246.4 358.185 202.211 313.005 155.778 334.283Z" fill="#2CCBD3"/>
<defs>
<linearGradient id="paint0_linear_108_389" x1="368.5" y1="0" x2="368.5" y2="737" gradientUnits="userSpaceOnUse">
<stop offset="0.00225706" stop-color="#2B5355"/>
<stop offset="1"/>
</linearGradient>
<linearGradient id="paint1_linear_108_389" x1="313.304" y1="336.433" x2="478.583" y2="878.358" gradientUnits="userSpaceOnUse">
<stop stop-color="white"/>
<stop offset="1" stop-color="#EEEEEE"/>
</linearGradient>
</defs>
</svg>
